X:18
T:Phyllis and Damon Troop
S:Ashworth's Instructor, p. 34
M:C
%%MIDI program 72
%%MIDI transpose 8
L:1/8
K:D
|:D2|F2 D>F A2 F>A|d>fe>c d3 A|d2 f>d B2 c>d|e>c A>A A2::
A2|B>AB>c d2 (3def|A>BAG GFED|FABc dBGE|F>G A>F D2:|]

